X:3403
T:Cooley's
M:C
L:1/8
K:E Dorian
B,|EBBA B2EB|B2AB dBAG|FDAD BDAG|FDFA dAFD|!
EBBA B2EB|B2AB defg|afef dBAd|DEFD E3:|!
f|eBB2 egfg|eBB2 gedB|A2FA DAFA|BAFA defg|!
eBB2 egfg|eBB2 defg|afef dBAd|DEFD E3:|!


